icons/op-changeset-up-24.svg

<svg width="24" height="24" viewBox="0 0 24 24" fill="none" xmlns="http://www.w3.org/2000/svg">
<path d="M10 9V13H14V8H16L12 4L8 8H10V9ZM17.875 9H15V10H17.2188L18.5 13H15C15 14.6562 13.6562 16 12 16C10.3438 16 9 14.6562 9 13H5.5L6.78125 10H9V9H6.125L4 14V20H20V14L17.875 9Z" fill="black"/>
</svg>

<svg xmlns="http://www.w3.org/2000/svg" width="24" height="24" viewBox="0 0 24 24"><path d="M10 9v4h4V8h2l-4-4-4 4h2v1Zm7.875 0H15v1h2.219l1.281 3H15a3.001 3.001 0 0 1-6 0H5.5l1.281-3H9V9H6.125L4 14v6h16v-6l-2.125-5Z"/></svg>
